!!!OTL: "Die Versucherin" ULLI, MEIN ULLI, KOMM DU ZU MIR CHILT
!!!ARE: Europa, Mitteleuropa, Schweiz
!!!SCT: Z1215
!!!YEM: Copyright 1995, estate of Helmut Schaffrath.
**kern
*ICvox
*Ivox
*M3/4
*k[b-e-a-d-]
*A-:
{4a-
=1
4.a-
8cc
8b-
8a-
=2
8g
8e-
4e-}
{4a-
=3
4cc
8a-
8cc
8ee-
8cc
=4
2b-}
{4a-
=5
4.a-
8cc
8b-
8a-
=6
8g
8e-
4e-}
{4a-
=7
4cc
8a-
8cc
8ee-
8cc
=8
2b-}
{8cc
8dd-
=9
4ee-
4cc
8ee-
8cc
=10
4dd-
4b-}
{8cc
8dd-
=11
4ee-
4cc
8ee-
8cc
=12
4dd-
4b-}
{8dd-
8ff
=13
4.ee-
8cc
8dd-
8b-
=14
2a-}
==
!!!AGN: Liebes - Lied
!!!ONB: ESAC (Essen Associative Code) Database: ZUCCAL
!!!AMT: simple triple
!!!AIN: vox
!!!EED: Helmut Schaffrath
!!!EEV: 1.0
*-
